assets/01_base/Base_46.svg

<svg width="500" height="500" viewBox="0 0 500 500" fill="none" xmlns="http://www.w3.org/2000/svg">
<g clip-path="url(#clip0_70_584)">
<path d="M249.5 483.014C297.278 483.014 336.011 448.125 336.011 405.087C336.011 362.049 297.278 327.159 249.5 327.159C201.721 327.159 162.988 362.049 162.988 405.087C162.988 448.125 201.721 483.014 249.5 483.014Z" fill="#F99D1C"/>
<path d="M249.501 84.4533C269.881 84.4533 286.402 69.5772 286.402 51.2266C286.402 32.8761 269.881 18 249.501 18C229.121 18 212.6 32.8761 212.6 51.2266C212.6 69.5772 229.121 84.4533 249.501 84.4533Z" fill="#F99D1C"/>
<path d="M386.889 147C371.111 91.9203 315.579 51.2266 249.5 51.2266C183.421 51.2266 127.889 91.9203 112.111 147L34 405.087H465L386.889 147Z" fill="#FFCF4B"/>
</g>
<defs>
<clipPath id="clip0_70_584">
<rect width="431" height="465" fill="white" transform="translate(34 18)"/>
</clipPath>
</defs>
</svg>

<svg xmlns="http://www.w3.org/2000/svg" width="500" height="500" fill="none" viewBox="0 0 500 500"><g clip-path="url(#Base_46_svg_clip0_70_584)"><g clip-path="url(#Base_46_svg_clip1_70_584)"><path fill="#f99d1c" d="M249.5 483.014c47.778 0 86.511-34.889 86.511-77.927s-38.733-77.928-86.511-77.928c-47.779 0-86.512 34.89-86.512 77.928s38.733 77.927 86.512 77.927"/><path fill="#f99d1c" d="M249.501 84.453c20.38 0 36.901-14.876 36.901-33.226S269.881 18 249.501 18 212.6 32.876 212.6 51.227s16.521 33.226 36.901 33.226"/><path fill="#ffcf4b" d="M386.889 147c-15.778-55.08-71.31-95.773-137.389-95.773S127.889 91.92 112.111 147L34 405.087h431z"/></g></g><defs><clipPath id="Base_46_svg_clip0_70_584"><rect width="500" height="500" fill="#fff"/></clipPath><clipPath id="Base_46_svg_clip1_70_584"><rect width="431" height="465" fill="#fff" transform="translate(34 18)"/></clipPath></defs></svg>
